static/img/device/cable-input-4pin.svg

<svg width="445" height="68" viewBox="0 0 445 68" fill="none" xmlns="http://www.w3.org/2000/svg">
<g clip-path="url(#clip0_50_2073)">
<path d="M444.43 0H0V67.99H444.43V0Z" fill="white"/>
<path d="M410.38 49.42H393.12" stroke="black" stroke-width="0.67" stroke-linecap="round" stroke-linejoin="round"/>
<path d="M393.14 49.42H34.7" stroke="#727171" stroke-width="3.79" stroke-linecap="square" stroke-linejoin="round"/>
<path d="M434.03 49.42H410.41" stroke="#727171" stroke-width="3.79" stroke-linecap="square" stroke-linejoin="round"/>
<path d="M410.38 39.11H392.52" stroke="black" stroke-width="0.67" stroke-linecap="round" stroke-linejoin="round"/>
<path d="M393.14 39.11H34.7" stroke="#231815" stroke-width="3.79" stroke-linecap="square" stroke-linejoin="round"/>
<path d="M434.03 39.11H410.41" stroke="#231815" stroke-width="3.79" stroke-linecap="square" stroke-linejoin="round"/>
<path d="M410.38 28.88H393.12" stroke="black" stroke-width="0.67" stroke-linecap="round" stroke-linejoin="round"/>
<path d="M393.14 28.88H34.7" stroke="#FFE100" stroke-width="3.79" stroke-linecap="square" stroke-linejoin="round"/>
<path d="M434.03 28.88H410.41" stroke="#FFE100" stroke-width="3.79" stroke-linecap="square" stroke-linejoin="round"/>
<path d="M410.38 18.57H393.12" stroke="black" stroke-width="0.67" stroke-linecap="round" stroke-linejoin="round"/>
<path d="M393.14 18.57H34.7" stroke="#E60012" stroke-width="3.79" stroke-linecap="square" stroke-linejoin="round"/>
<path d="M434.03 18.57H410.41" stroke="#E60012" stroke-width="3.79" stroke-linecap="square" stroke-linejoin="round"/>
<path d="M9.02002 55.43H30.28V58.97H33.98V9.02002H30.28V12.56H9.02002V55.43Z" fill="white"/>
<path d="M26.74 55.43V53.73H17.96V46.4901H26.74V44.7901V42.94H17.96V36.01H26.74V34.3101V32.4701H17.96V25.22H26.74V23.53V21.84H17.96V14.75H26.74V13.05" stroke="black" stroke-width="0.34" stroke-linecap="round" stroke-linejoin="round"/>
<path d="M12.56 55.43V52.0401H16.11V48.4901H12.56V44.7901V41.25H16.11V37.71H12.56V34.3101V30.7701H16.11V27.07H12.56V23.53V19.98H16.11V16.44H12.56V13.05" stroke="black" stroke-width="0.34" stroke-linecap="round" stroke-linejoin="round"/>
<path d="M9.02002 55.43H30.28V58.97H33.98V9.02002H30.28V12.56H9.02002V55.43Z" stroke="black" stroke-width="1.03" stroke-linecap="round" stroke-linejoin="round"/>
<path d="M30.28 55.43V12.56" stroke="black" stroke-width="0.34" stroke-linecap="round" stroke-linejoin="round"/>
</g>
<defs>
<clipPath id="clip0_50_2073">
<rect width="444.43" height="67.99" fill="white"/>
</clipPath>
</defs>
</svg>

<svg xmlns="http://www.w3.org/2000/svg" width="445" height="68" fill="none" viewBox="0 0 445 68"><g clip-path="url(#a)"><path fill="#fff" d="M444.43 0H0v67.99h444.43z"/><path stroke="#000" stroke-linecap="round" stroke-linejoin="round" stroke-width=".67" d="M410.38 49.42h-17.26"/><path stroke="#727171" stroke-linecap="square" stroke-linejoin="round" stroke-width="3.79" d="M393.14 49.42H34.7M434.03 49.42h-23.62"/><path stroke="#000" stroke-linecap="round" stroke-linejoin="round" stroke-width=".67" d="M410.38 39.11h-17.86"/><path stroke="#231815" stroke-linecap="square" stroke-linejoin="round" stroke-width="3.79" d="M393.14 39.11H34.7M434.03 39.11h-23.62"/><path stroke="#000" stroke-linecap="round" stroke-linejoin="round" stroke-width=".67" d="M410.38 28.88h-17.26"/><path stroke="#ffe100" stroke-linecap="square" stroke-linejoin="round" stroke-width="3.79" d="M393.14 28.88H34.7M434.03 28.88h-23.62"/><path stroke="#000" stroke-linecap="round" stroke-linejoin="round" stroke-width=".67" d="M410.38 18.57h-17.26"/><path stroke="#e60012" stroke-linecap="square" stroke-linejoin="round" stroke-width="3.79" d="M393.14 18.57H34.7M434.03 18.57h-23.62"/><path fill="#fff" d="M9.02 55.43h21.26v3.54h3.7V9.02h-3.7v3.54H9.02z"/><path stroke="#000" stroke-linecap="round" stroke-linejoin="round" stroke-width=".34" d="M26.74 55.43v-1.7h-8.78v-7.24h8.78v-3.55h-8.78v-6.93h8.78v-3.54h-8.78v-7.25h8.78v-3.38h-8.78v-7.09h8.78v-1.7M12.56 55.43v-3.39h3.55v-3.55h-3.55v-7.24h3.55v-3.54h-3.55v-6.94h3.55v-3.7h-3.55v-7.09h3.55v-3.54h-3.55v-3.39"/><path stroke="#000" stroke-linecap="round" stroke-linejoin="round" stroke-width="1.03" d="M9.02 55.43h21.26v3.54h3.7V9.02h-3.7v3.54H9.02z"/><path stroke="#000" stroke-linecap="round" stroke-linejoin="round" stroke-width=".34" d="M30.28 55.43V12.56"/></g><defs><clipPath id="a"><path fill="#fff" d="M0 0h444.43v67.99H0z"/></clipPath></defs></svg>
